X:1
T: The Flaggon
T: The Flogging
R:Reel
Q: 232
K:G
M:4/4
L:1/8
c|BG G2 BG dG|BG G2 G2 gd|BG G2 BG dB|A1/2B1/2c =Fc AF cA|
BG G2 BG dG|BG G2 G2 gd|BG G2 BG dB|A1/2B1/2c =Fc AF cA|
g2 dB GB1/2c1/2 dB|g2 dB gb af|g2 dB GB1/2c1/2 d_B|A=f cf A=F cA|
g2 dB GB1/2c1/2 dB|g2 dB gb af|g2 dB GB1/2c1/2 d_B|A=f cf A=F cA|
B1/2c1/2d gd B1/2c1/2d gd|B1/2c1/2d gd BG G_B|A1/2_B1/2c =fc A1/2B1/2c fc|A1/2_B1/2c =fc AF Fc|
B1/2c1/2d gd B1/2c1/2d gd|B1/2c1/2d gd Bd gd|=fg ag fg fd|cA =fc AF Fc|
B1/2c1/2d Gd Bd Gd|B1/2c1/2d Gd BG G_B|A1/2_B1/2c =Fc Ac Fc|A1/2_B1/2c =Fc AF Fc|
B1/2c1/2d Gd Bd Gd|B1/2c1/2d Gd Bd Gd|=fg ag fg fd|cA =fc A=F F||
